X: 1
T: Paddy Taylor's
M: 4/4
L: 1/8
R: reel
K: Amix
cAeA cAeA|cAed BGGA|Be~e2 deed|BG~G2 BcdB:|
BAce ~a3f|gfed ea~a2|AGBd efge|dG~G2 BcdB|
BAce ~a3f|gfed eaag|~f3d eged|BG~G2 BcdB||
